X: 2
T: 91st At Modder River March, The
Z: ceolachan
S: https://thesession.org/tunes/8114#setting19314
R: barndance
M: 4/4
L: 1/8
K: Bmin
|: F2 |B2 B<c B2 c<e | f2 a<e f2 e<c | A>AA<B A2 c<e | f2 a>A c2 B<A |
B>BBc B2 c<e | f2 a>e f2 ec | BABc B<fec | c2 B2 B2 :|
|: c<e |f4 f2 a2 | f>ec<e f2 e>c | A>AAB A2 c<e | f2 a>A c2 B<A |
[1 f4 f2 a2 | f>ec<e f2 e>c | B>AB<c B<fe>c | c2 B2 B2 :|
[2 B2 B<c B2 c<e | f2 a>e f2 ec | BABc B<fec | c2 B2 B2 ||
|: f2 |B>BB<c f>Bc<e | f>B B2 f2 e>c | A>AA>c e>Ac<e | f<aAa f2 e>c |
B2 B<c f>Bc<e | f>B B2 f2 e>c | B<AB>c B<fe>c | c2 B2 B2 :|
|: c<e |f>ef<a f>ec<e | f>a^g<a f2 e>c | A>AA>c e>Ac<e | f<aAa f2 e>c |
[1 f>ef<a f>ec<e | f>a^g<a f2 e>c | B>AB<c B<fe>c | c2 B2 B2 :|
[2 B2 B<c f>Bc<e | f>B B2 f2 e>c | B<AB>c B<fe>c | c2 B2 B2 |]
